svg/aws-ec2-c4.svg

<?xml version="1.0" encoding="UTF-8"?>
<svg xmlns="http://www.w3.org/2000/svg" xmlns:xlink="http://www.w3.org/1999/xlink" width="32" height="32" viewBox="0 0 32 32">
<path fill-rule="evenodd" fill="rgb(83.137255%, 35.686275%, 2.745098%)" fill-opacity="1" d="M 17.273438 17.019531 L 19.222656 14.171875 L 19.222656 17.019531 Z M 19.222656 19.242188 L 20.335938 19.242188 L 20.335938 17.898438 L 21.203125 17.898438 L 21.203125 17.019531 L 20.335938 17.019531 L 20.335938 12.773438 L 19.179688 12.773438 L 16.164062 17.066406 L 16.164062 17.898438 L 19.222656 17.898438 Z M 11.585938 18.53125 C 11.058594 17.984375 10.796875 17.175781 10.796875 16.105469 C 10.796875 15.003906 11.070312 14.15625 11.613281 13.5625 C 12.15625 12.96875 12.941406 12.671875 13.960938 12.671875 C 14.519531 12.671875 15.039062 12.753906 15.511719 12.921875 L 15.511719 13.855469 C 14.890625 13.726562 14.402344 13.660156 14.050781 13.660156 C 13.34375 13.660156 12.816406 13.84375 12.472656 14.210938 C 12.125 14.578125 11.953125 15.144531 11.953125 15.910156 L 11.953125 16.132812 C 11.953125 16.894531 12.125 17.453125 12.464844 17.820312 C 12.808594 18.183594 13.332031 18.363281 14.03125 18.363281 C 14.429688 18.363281 14.953125 18.285156 15.605469 18.132812 L 15.605469 19.0625 C 15.113281 19.257812 14.550781 19.355469 13.921875 19.355469 C 12.890625 19.355469 12.109375 19.078125 11.585938 18.53125 M 6 26 L 26 26 L 26 6 L 6 6 Z M 30.667969 8.667969 L 30.667969 7.332031 L 27.332031 7.332031 L 27.332031 5.332031 C 27.332031 4.964844 27.035156 4.667969 26.667969 4.667969 L 24.667969 4.667969 L 24.667969 1.332031 L 23.332031 1.332031 L 23.332031 4.667969 L 20.667969 4.667969 L 20.667969 1.332031 L 19.332031 1.332031 L 19.332031 4.667969 L 16.667969 4.667969 L 16.667969 1.332031 L 15.332031 1.332031 L 15.332031 4.667969 L 12.667969 4.667969 L 12.667969 1.332031 L 11.332031 1.332031 L 11.332031 4.667969 L 8.667969 4.667969 L 8.667969 1.332031 L 7.332031 1.332031 L 7.332031 4.667969 L 5.332031 4.667969 C 4.964844 4.667969 4.667969 4.964844 4.667969 5.332031 L 4.667969 7.332031 L 1.332031 7.332031 L 1.332031 8.667969 L 4.667969 8.667969 L 4.667969 11.332031 L 1.332031 11.332031 L 1.332031 12.667969 L 4.667969 12.667969 L 4.667969 15.332031 L 1.332031 15.332031 L 1.332031 16.667969 L 4.667969 16.667969 L 4.667969 19.332031 L 1.332031 19.332031 L 1.332031 20.667969 L 4.667969 20.667969 L 4.667969 23.332031 L 1.332031 23.332031 L 1.332031 24.667969 L 4.667969 24.667969 L 4.667969 26.667969 C 4.667969 27.035156 4.964844 27.332031 5.332031 27.332031 L 7.332031 27.332031 L 7.332031 30.667969 L 8.667969 30.667969 L 8.667969 27.332031 L 11.332031 27.332031 L 11.332031 30.667969 L 12.667969 30.667969 L 12.667969 27.332031 L 15.332031 27.332031 L 15.332031 30.667969 L 16.667969 30.667969 L 16.667969 27.332031 L 19.332031 27.332031 L 19.332031 30.667969 L 20.667969 30.667969 L 20.667969 27.332031 L 23.332031 27.332031 L 23.332031 30.667969 L 24.667969 30.667969 L 24.667969 27.332031 L 26.667969 27.332031 C 27.035156 27.332031 27.332031 27.035156 27.332031 26.667969 L 27.332031 24.667969 L 30.667969 24.667969 L 30.667969 23.332031 L 27.332031 23.332031 L 27.332031 20.667969 L 30.667969 20.667969 L 30.667969 19.332031 L 27.332031 19.332031 L 27.332031 16.667969 L 30.667969 16.667969 L 30.667969 15.332031 L 27.332031 15.332031 L 27.332031 12.667969 L 30.667969 12.667969 L 30.667969 11.332031 L 27.332031 11.332031 L 27.332031 8.667969 Z M 30.667969 8.667969 "/>
</svg>

<svg role="img" viewBox="0 0 32 32" xmlns="http://www.w3.org/2000/svg"><path d="m17.273 17.02 1.95-2.848v2.848Zm1.95 2.222h1.113v-1.344h.867v-.878h-.867v-4.247H19.18l-3.016 4.293v.832h3.059Zm-7.637-.71q-.79-.821-.79-2.427.001-1.652.817-2.543.816-.89 2.348-.89.84-.001 1.55.25v.933q-.932-.194-1.46-.195-1.062 0-1.578.55-.521.552-.52 1.7v.223c0 .762.172 1.32.512 1.687q.517.544 1.566.543.597-.001 1.574-.23v.93q-.739.292-1.683.292c-1.031 0-1.813-.277-2.336-.824M6 26h20V6H6ZM30.668 8.668V7.332h-3.336v-2a.664.664 0 0 0-.664-.664h-2V1.332h-1.336v3.336h-2.664V1.332h-1.336v3.336h-2.664V1.332h-1.336v3.336h-2.664V1.332h-1.336v3.336H8.668V1.332H7.332v3.336h-2a.664.664 0 0 0-.664.664v2H1.332v1.336h3.336v2.664H1.332v1.336h3.336v2.664H1.332v1.336h3.336v2.664H1.332v1.336h3.336v2.664H1.332v1.336h3.336v2c0 .367.297.664.664.664h2v3.336h1.336v-3.336h2.664v3.336h1.336v-3.336h2.664v3.336h1.336v-3.336h2.664v3.336h1.336v-3.336h2.664v3.336h1.336v-3.336h2a.664.664 0 0 0 .664-.664v-2h3.336v-1.336h-3.336v-2.664h3.336v-1.336h-3.336v-2.664h3.336v-1.336h-3.336v-2.664h3.336v-1.336h-3.336V8.668Zm0 0" fill="rgb(83.137256%, 35.686275%, 2.745098%)" fill-rule="evenodd"/></svg>
